X:1
T:Title
%%score { 1 | 2 }
L:1/8
M:3/4
K:Bb
V:1 treble nm="Grand Piano"
V:2 bass 
V:1
 z2 z2[Q:1/4=118] F2 | F2 D2 F2 | B2 F2 B2 | A2 F2 c2 | [DB]4 [Fc]2 | [Fd]2 [Fd]2 [Fd]2 | %6
 [Fd]2 [Fe]2 [Ff]2 | [FA]2 [GB]2 [=EG]2 | F4 F2 | F2 A2 B2 | c2 A2 F2 | [FB]2 B2 c2 | d4 [Bd]2 | %13
 [Ge]2 [Gd]2 [Gc]2 | B .F3 B2 | [Gc]2 [FB]2 [EA]2 |[M:2/4] [DB]4 |[Q:1/4=108] [DF]2 [B,D]2 | %18
 [DB]2 [DF]>[FB] | [Fc]>[Fc] [FB]>[Fc] | [Fd]4 | [Ff]2 [Fd]2 | [Fd]2 [DB]>[Fd] | %23
 [=Ec]>[EB] [EA]>[B,EG] | [A,F]4 | [B,DF]2 [F,B,D]2 | [DB]2 [DF]>[FB] | [^Fd]>[Fd] [Fd]>[Ad] | %28
[M:11/16] [Gd]/-[Gd]/-[Gd]/-[Gd]/-[Gd]/-[Gd]-<[Gd][Gd] |[M:2/4] [Ge]>[Ge] [Gd]>[Gc] | %30
 [Ff]>[Fd] [FB][Gc] | [Fd]2 [Ec]2 |[M:3/4] [DB]6 |] %33
V:2
 z2 z2 F,2 | F,2 D,2 F,2 | B,2 F,2 B,2 | A,2 F,2 [F,E]2 | [B,,F,]4 [F,A,]2 | %5
 [B,,B,]2 [B,,B,]2 [B,,B,]2 | [B,,B,]2 [C,A,]2 [D,B,]2 | [C,C]2 [C,C]2 [C,B,]2 | [F,A,]4 F,2 | %9
 [F,A,E]2 [F,CE]2 [F,B,D]2 | [F,A,E]2 [F,CE]2 [F,A,E]2 | [D,B,]2 [D,F,D]2[K:treble] [F,A,F]2 | %12
 [B,B]4[K:bass] [B,,F,]2 | [E,B,]2 [E,B,]2 [E,B,]2 | [F,DF] .[F,D]3 [F,DF]2 | %15
 [E,E]2 [F,D]2 [F,C]2 |[M:2/4] [B,,B,]4 | [B,,B,]2 [B,,F,]2 | [B,,F,]2 [B,,B,]>[D,B,] | %19
 [F,A,]>[F,A,] [D,F,]>[F,A,] | [B,,B,]4 | [B,,D]2 [B,,B,]2 | [B,,B,]2 [B,,F,]>[B,,B,] | %23
 [C,B,]>[C,C] [C,C]>C, | F,4 | B,,2 B,,2 | [B,,F,]2 [B,,B,]>[D,B,] | [D,A,]>[D,A,] [D,A,]>[D,C] | %28
[M:11/16] [G,B,]/-[G,B,]/-[G,B,]/-[G,B,]/-[G,B,]/-[G,B,]-<[G,B,][G,B,] | %29
[M:2/4] [E,B,]>[E,B,] [E,B,]>[E,B,] | [D,B,]>[D,B,] [F,D][E,B,] | [F,B,]2 [F,A,]2 | %32
[M:3/4] [B,,F,B,]6 |] %33

